X:237
T:Polka F/Bb 7-
T:Hanny Christen. Bd.3 Appenzell. S.254 (pk03587) orig. C/F-Dur
C:H.C. Jakob Alder, UrnÃ¤asch, J.J. Petererm 1895. 
M:2/4
L:1/16
K:Fmaj
"F"A2GF C2FD | "C7"EGGc cegf | e2dc E2GB | "F"d2cA F2EF | \ 
A2GF C2FD | "C7"EGGc cegf | e2dc B2DE | "F"F2A2 F2 z2 :|
"C7"d2BG E2ed | "F"c2AF C2AB | "C7"c2BG E2AB | "F"c2AF C2Ac | \ 
"C7"d2BG E2ed | "F"c2AF C2AB | "C7"c2BG E2DE | "F"F2A2 F2 "bbine"z2 :| 
K:Bbmaj
|: "Bb"ddd2 "F7"ccc2 | "Bb"BBB2 B,2DB, | "F7"FFF2 e2F2 | "Bb"FFF2 d2F2 | \
Fdd2 "F7"Ecc2 | "Bb"DBB2 B,2DB, | "F7"A,FF2 e2A2 | "Bb"B2d2 B2 z2 :| 
"Eb"G2FE "F7"c2Ac | "Bb"c2AF BFB2 | "F7"c2AF c2AF | "Bb"Dddc cBBF | \ 
"Eb"G2FE "F7"c2Ac | "Bb"c2BF B2FB | "F7"c2AF c2AF | "Bb"B2dd "_>Teil A"B2 z2 :|

